svgs/duotone/square-caret-up.svg

<svg xmlns="http://www.w3.org/2000/svg" viewBox="0 0 448 512"><!-- Font Awesome Pro 6.0.0-alpha2 by @fontawesome - https://fontawesome.com License - https://fontawesome.com/license (Commercial License) --><defs><style>.fa-secondary{opacity:.4}</style></defs><path d="M384 32H64C28.654 32 0 60.652 0 96V416C0 451.344 28.654 480 64 480H384C419.346 480 448 451.344 448 416V96C448 60.652 419.346 32 384 32ZM350 305.594C346.188 314.344 337.531 320 328 320H120C110.469 320 101.812 314.344 98 305.594C94.188 296.844 95.906 286.656 102.406 279.656L206.406 167.656C215.531 157.906 232.469 157.906 241.594 167.656L345.594 279.656C352.094 286.656 353.812 296.844 350 305.594Z" class="fa-secondary"/><path d="M350.002 305.594C346.19 314.344 337.534 320 328.003 320H120.003C110.472 320 101.815 314.344 98.002 305.594C94.19 296.844 95.909 286.656 102.409 279.656L206.409 167.656C215.534 157.906 232.472 157.906 241.597 167.656L345.597 279.656C352.097 286.656 353.815 296.844 350.002 305.594Z" class="fa-primary"/></svg>

<svg xmlns="http://www.w3.org/2000/svg" viewBox="0 0 448 512"><!--! Font Awesome Pro 6.4.0 by @fontawesome - https://fontawesome.com License - https://fontawesome.com/license (Commercial License) Copyright 2023 Fonticons, Inc. --><defs><style>.fa-secondary{opacity:.4}</style></defs><path class="fa-primary" d="M241.6 167.7c-4.5-4.9-10.9-7.7-17.6-7.7s-13 2.8-17.6 7.7l-104 112c-6.5 7-8.2 17.2-4.4 25.9s12.5 14.4 22 14.4H328c9.5 0 18.2-5.7 22-14.4s2.1-18.9-4.4-25.9l-104-112z"/><path class="fa-secondary" d="M64 32C28.7 32 0 60.7 0 96V416c0 35.3 28.7 64 64 64H384c35.3 0 64-28.7 64-64V96c0-35.3-28.7-64-64-64H64zM224 160c6.7 0 13 2.8 17.6 7.7l104 112c6.5 7 8.2 17.2 4.4 25.9s-12.5 14.4-22 14.4H120c-9.5 0-18.2-5.7-22-14.4s-2.1-18.9 4.4-25.9l104-112c4.5-4.9 10.9-7.7 17.6-7.7z"/></svg>
